web/packages/design/src/ResourceIcon/assets/drata-light.svg

<svg width="72" height="72" viewBox="0 0 72 72" fill="none" xmlns="http://www.w3.org/2000/svg">
<path fill-rule="evenodd" clip-rule="evenodd" d="M57.7324 70.0022C51.7657 64.6385 44.0219 61.6782 35.9988 61.6938C27.6856 61.6938 20.0783 64.8146 14.2676 70.0022H0L0.331072 69.5226L9.77868 51.847L24.4723 24.3221L31.5586 37.5307L23.5253 52.5651C27.5704 51.3448 31.7737 50.7296 35.9988 50.7394C40.3465 50.7394 44.5506 51.365 48.5209 52.6138L44.3144 44.7363V44.6876L43.3699 42.9106L39.2608 35.2254L35.9988 29.125L28.9149 15.9164L31.746 10.6339L36.0475 2.61035L71.6689 69.5226L72 70.0022H57.7324Z" fill="black"/>
</svg>

<svg xmlns="http://www.w3.org/2000/svg" width="72" height="72" fill="none" viewBox="0 0 72 72"><path fill="#000" fill-rule="evenodd" d="M57.732 70.002A32.42 32.42 0 0 0 36 61.694c-8.313 0-15.92 3.12-21.731 8.308H0l.331-.48L9.78 51.848l14.693-27.525 7.087 13.209-8.034 15.034A42.8 42.8 0 0 1 36 50.74c4.347 0 8.552.626 12.522 1.875l-4.207-7.878v-.048l-.944-1.777-4.11-7.686-3.261-6.1-7.084-13.209 2.831-5.282 4.302-8.024 35.62 66.913.332.48z" clip-rule="evenodd"/></svg>
